public/assets/img/vector1.svg

<svg width="127" height="120" viewBox="0 0 127 120" fill="none" xmlns="http://www.w3.org/2000/svg">
<rect x="37" y="60" width="60" height="60" rx="24" fill="#FF3B30"/>
<path d="M46.8323 66.6885C46.0612 70.9312 45.2719 75.2687 44.7148 78.3288L46.8323 66.6885ZM46.8323 66.6885L55.3774 67.0839M46.8323 66.6885C47.6228 62.3394 48.3943 58.0899 48.8772 55.4184M65.2851 75.5864C65.2967 75.4474 65.42 74.4657 65.8213 71.6509C66.2226 68.8361 63.428 67.637 61.9805 67.3894L55.3774 67.0839M65.2851 75.5864L55.0605 74.9644C54.1435 75.0626 52.2543 75.926 52.033 78.5944C51.8116 81.2628 51.3757 84.8315 51.1855 86.2823M65.2851 75.5864L69.6622 75.9125C70.8214 76.2652 72.9874 77.7944 72.3786 81.0891C71.7697 84.3839 68.8493 84.8682 67.4653 84.6985L60.7872 84.3008L59.9397 91.9887M58.1408 103.561C50.8607 102.332 45.6381 97.5355 43.9368 95.2912L37.8467 87.8055L36.3242 85.9341C35.8052 85.4493 34.9263 83.5726 35.5628 79.9442C36.1994 76.3159 39.0339 60.0129 40.3715 52.3149C40.6483 50.6641 41.9181 47.324 44.783 47.1699C48.3643 46.9773 49.7484 50.5164 49.3506 52.7841C49.2865 53.1493 49.1176 54.0883 48.8772 55.4184M55.3774 67.0839L52.1273 61.2511L48.8772 55.4184" stroke="#252836" stroke-width="4" stroke-linecap="round" stroke-linejoin="round"/>
<path d="M47.05 47.6579C47.7991 42.3828 51.7417 42.8034 53.2534 43.7764L62.8804 56.9372C65.042 57.3814 70.3221 59.3573 74.1494 63.7077C77.9767 68.058 79.3048 74.0274 79.4904 76.4683C80.1463 79.0449 81.6486 84.4318 82.4099 85.3675C83.1711 86.3032 86.3889 90.5534 87.9026 92.5616" stroke="#252836" stroke-width="4" stroke-linecap="round" stroke-linejoin="round"/>
<path d="M36.2438 72.985L21.4085 54.4481C20.3627 53.3239 18.1174 50.2454 22.3646 47.3489C25.57 45.1628 27.8207 48.163 28.9084 49.5L33.9288 55.4371L38.1438 60.8903" stroke="#252836" stroke-width="4" stroke-linecap="round" stroke-linejoin="round"/>
<path d="M24.3777 27.3652L34.3551 36.4108" stroke="#252836" stroke-width="4" stroke-linecap="round" stroke-linejoin="round"/>
<path d="M38.449 18.2322L41.8066 32.221" stroke="#252836" stroke-width="4" stroke-linecap="round" stroke-linejoin="round"/>
<path d="M54.4709 16.7289L50.8495 31.6408" stroke="#252836" stroke-width="4" stroke-linecap="round" stroke-linejoin="round"/>
</svg>

<svg width="127" height="120" fill="none" xmlns="http://www.w3.org/2000/svg"><rect x="37" y="60" width="60" height="60" rx="24" fill="#FF3B30"/><path d="M46.832 66.689c-.77 4.242-1.56 8.58-2.117 11.64l2.117-11.64Zm0 0 8.545.395m-8.545-.395c.79-4.35 1.562-8.6 2.045-11.27m16.408 20.167c.012-.139.135-1.12.536-3.935.402-2.815-2.393-4.014-3.84-4.262l-6.604-.305m9.908 8.502-10.224-.622c-.917.099-2.807.962-3.028 3.63-.221 2.669-.657 6.238-.848 7.688m14.1-10.696 4.377.326c1.16.353 3.325 1.882 2.717 5.177-.61 3.295-3.53 3.78-4.914 3.61l-6.678-.398-.847 7.688m-1.8 11.572c-7.28-1.229-12.502-6.026-14.203-8.27l-6.09-7.486-1.523-1.87c-.519-.486-1.398-2.362-.761-5.99.636-3.63 3.47-19.932 4.808-27.63.277-1.65 1.547-4.991 4.412-5.145 3.581-.193 4.965 3.346 4.568 5.614-.065.365-.233 1.304-.474 2.634m6.5 11.666-3.25-5.833-3.25-5.833" stroke="#252836" stroke-width="4" stroke-linecap="round" stroke-linejoin="round"/><path d="M47.05 47.658c.75-5.275 4.692-4.855 6.203-3.882l9.627 13.161c2.162.444 7.442 2.42 11.27 6.77 3.827 4.351 5.155 10.32 5.34 12.761.656 2.577 2.159 7.964 2.92 8.9.761.935 3.979 5.185 5.493 7.194M36.244 72.985 21.409 54.448c-1.046-1.124-3.292-4.203.956-7.1 3.205-2.185 5.456.815 6.543 2.152l5.02 5.937 4.216 5.453M24.378 27.365l9.977 9.046M38.449 18.232l3.358 13.989M54.47 16.729 50.85 31.64" stroke="#252836" stroke-width="4" stroke-linecap="round" stroke-linejoin="round"/></svg>
